contributed-vectors/fandom.svg

<svg width="192" height="192" version="1.1" viewBox="0 0 192 192" xmlns="http://www.w3.org/2000/svg">
 <path d="m67.938 8c-2.1846 0.036-3.9376 1.8151-3.9375 4v66.344l-25.172-25.172c-2.52-2.5182-6.8267-0.73444-6.8281 2.8281v80c4.09e-4 2.1216 0.84346 4.1562 2.3438 5.6562l40 40c1.5001 1.5003 3.5347 2.3434 5.6562 2.3438h36c2.2675-4.4e-4 4.4284-0.96304 5.9453-2.6484l36-40c1.3224-1.4688 2.0543-3.3752 2.0547-5.3516v-36c2e-3 -1.0597-0.4246-2.0768-1.1719-2.8281l-88-88c-0.76529-0.76564-1.8082-1.1884-2.8906-1.1719z" style="color-rendering:auto;color:#000000;dominant-baseline:auto;fill:#ff837d;font-feature-settings:normal;font-variant-alternates:normal;font-variant-caps:normal;font-variant-ligatures:normal;font-variant-numeric:normal;font-variant-position:normal;image-rendering:auto;isolation:auto;mix-blend-mode:normal;shape-padding:0;shape-rendering:auto;solid-color:#000000;text-decoration-color:#000000;text-decoration-line:none;text-decoration-style:solid;text-indent:0;text-orientation:mixed;text-transform:none;white-space:normal"/>
 <path d="m79.938 96c-1.0391 0.016-2.031 0.43684-2.7656 1.1719l-12 12c-0.75014 0.75004-1.1717 1.7673-1.1719 2.8281v12c2.04e-4 1.0608 0.42173 2.0781 1.1719 2.8281l28 28c1.5621 1.5615 4.0941 1.5615 5.6562 0l28-28c0.75015-0.75004 1.1717-1.7673 1.1719-2.8281v-12c-2e-4 -1.0608-0.42173-2.0781-1.1719-2.8281l-12-12c-1.5621-1.5615-4.0941-1.5615-5.6562 0l-13.172 13.172-13.172-13.172c-0.76529-0.76564-1.8082-1.1884-2.8906-1.1719z" style="color-rendering:auto;color:#000000;dominant-baseline:auto;fill:#f9de81;font-feature-settings:normal;font-variant-alternates:normal;font-variant-caps:normal;font-variant-ligatures:normal;font-variant-numeric:normal;font-variant-position:normal;image-rendering:auto;isolation:auto;mix-blend-mode:normal;shape-padding:0;shape-rendering:auto;solid-color:#000000;text-decoration-color:#000000;text-decoration-line:none;text-decoration-style:solid;text-indent:0;text-orientation:mixed;text-transform:none;white-space:normal"/>
</svg>

<svg xmlns="http://www.w3.org/2000/svg" width="192" height="192"><path d="M67.938 8A4.001 4.001 0 0 0 64 12v66.344L38.83 53.172C36.309 50.654 32.002 52.438 32 56v80a8 8 0 0 0 2.344 5.656l40 40A8 8 0 0 0 80 184h36a8.001 8.001 0 0 0 5.946-2.648l36-40A8 8 0 0 0 160 136v-36a4.007 4.007 0 0 0-1.172-2.828l-88-88A4 4 0 0 0 67.938 8z" style="color-rendering:auto;color:#000;dominant-baseline:auto;fill:#ff837d;font-feature-settings:normal;font-variant-alternates:normal;font-variant-caps:normal;font-variant-ligatures:normal;font-variant-numeric:normal;font-variant-position:normal;image-rendering:auto;isolation:auto;mix-blend-mode:normal;shape-padding:0;shape-rendering:auto;solid-color:#000;text-decoration-color:#000;text-decoration-line:none;text-decoration-style:solid;text-indent:0;text-orientation:mixed;text-transform:none;white-space:normal"/><path d="M79.938 96a3.998 3.998 0 0 0-2.766 1.172l-12 12A4 4 0 0 0 64 112v12a4 4 0 0 0 1.172 2.828l28 28a4 4 0 0 0 5.657 0l28-28A4 4 0 0 0 128 124v-12a4 4 0 0 0-1.172-2.828l-12-12a4 4 0 0 0-5.657 0L96 110.344 82.828 97.172A4 4 0 0 0 79.938 96z" style="color-rendering:auto;color:#000;dominant-baseline:auto;fill:#f9de81;font-feature-settings:normal;font-variant-alternates:normal;font-variant-caps:normal;font-variant-ligatures:normal;font-variant-numeric:normal;font-variant-position:normal;image-rendering:auto;isolation:auto;mix-blend-mode:normal;shape-padding:0;shape-rendering:auto;solid-color:#000;text-decoration-color:#000;text-decoration-line:none;text-decoration-style:solid;text-indent:0;text-orientation:mixed;text-transform:none;white-space:normal"/></svg>
